icons/24x24_contacts_filled.svg

<svg xmlns="http://www.w3.org/2000/svg" width="24" height="24" viewBox="0 0 24 24">
  <path fill-rule="evenodd" d="M5,17 L5,15 L4,15 C3.44771525,15 3,14.5522847 3,14 C3,13.4477153 3.44771525,13 4,13 L5,13 L5,11 L4,11 C3.44771525,11 3,10.5522847 3,10 C3,9.44771525 3.44771525,9 4,9 L5,9 L5,7 L4,7 C3.44771525,7 3,6.55228475 3,6 C3,5.44771525 3.44771525,5 4,5 L5,5 L5,4 C5,2.8954305 5.8954305,2 7,2 L19,2 C20.1045695,2 21,2.8954305 21,4 L21,20 C21,21.1045695 20.1045695,22 19,22 L7,22 C5.8954305,22 5,21.1045695 5,20 L5,19 L4,19 C3.44771525,19 3,18.5522847 3,18 C3,17.4477153 3.44771525,17 4,17 L5,17 Z M13,8 C11.8954305,8 11,8.8954305 11,10 C11,11.1045695 11.8954305,12 13,12 C14.1045695,12 15,11.1045695 15,10 C15,8.8954305 14.1045695,8 13,8 Z M10,16 L16,16 C16,14.3431458 14.6568542,13 13,13 C11.3431458,13 10,14.3431458 10,16 Z"/>
</svg>

<svg width="24" height="24" fill="none" xmlns="http://www.w3.org/2000/svg"><path fill-rule="evenodd" clip-rule="evenodd" d="M5 17v-2H4a1 1 0 1 1 0-2h1v-2H4a1 1 0 1 1 0-2h1V7H4a1 1 0 0 1 0-2h1V4a2 2 0 0 1 2-2h12a2 2 0 0 1 2 2v16a2 2 0 0 1-2 2H7a2 2 0 0 1-2-2v-1H4a1 1 0 1 1 0-2h1Zm8-9a2 2 0 1 0 0 4 2 2 0 0 0 0-4Zm-3 8h6a3 3 0 1 0-6 0Z" fill="#000"/></svg>
